scalable/apps/zed.svg

<svg width="128" height="128" viewBox="0 0 128 128" fill="none" xmlns="http://www.w3.org/2000/svg">
<path d="M103.5 16.5H24.5C17.3203 16.5 11.5 22.3203 11.5 29.5V108.5C11.5 115.68 17.3203 121.5 24.5 121.5H103.5C110.68 121.5 116.5 115.68 116.5 108.5V29.5C116.5 22.3203 110.68 16.5 103.5 16.5Z" fill="url(#paint0_linear_12_14547)"/>
<path d="M103.5 6.5H24.5C17.3203 6.5 11.5 12.3203 11.5 19.5V98.5C11.5 105.68 17.3203 111.5 24.5 111.5H103.5C110.68 111.5 116.5 105.68 116.5 98.5V19.5C116.5 12.3203 110.68 6.5 103.5 6.5Z" fill="#CCCCCC"/>
<path d="M102.162 8.83801H25.8379C19.2105 8.83801 13.8379 14.2106 13.8379 20.838V97.162C13.8379 103.789 19.2105 109.162 25.8379 109.162H102.162C108.789 109.162 114.162 103.789 114.162 97.162V20.838C114.162 14.2106 108.789 8.83801 102.162 8.83801Z" fill="url(#paint1_radial_12_14547)"/>
<path d="M93.3096 24.75L93.5928 24.7607C96.4648 24.9802 97.838 28.5204 95.7402 30.6182L61.1006 65.2578H70.125V60.875H74.875V66.5703C74.875 68.4688 73.336 70.0078 71.4375 70.0078H56.3506L49.5459 76.8125H81.8125V50.25H86.5625V77.0625C86.5625 79.5478 84.5478 81.5625 82.0625 81.5625H44.7959L37.8584 88.5H91.625C92.6606 88.5 93.5 87.6606 93.5 86.625V39.625H98.25V86.625C98.25 90.2839 95.2839 93.25 91.625 93.25H34.6904C31.6279 93.25 30.0943 89.5474 32.2598 87.3818L66.7666 52.875H57.875V57.125H53.125V51.5625C53.125 49.664 54.664 48.125 56.5625 48.125H71.5166L78.4541 41.1875H46.1875V67.75H41.4375V40.9375C41.4375 38.4522 43.4522 36.4375 45.9375 36.4375H83.2041L90.1416 29.5H36.375C35.3395 29.5 34.5 30.3395 34.5 31.375V78.375H29.75V31.375C29.75 27.7161 32.7161 24.75 36.375 24.75H93.3096Z" fill="#E5E5E5" stroke="#E5E5E5" stroke-width="0.5"/>
<defs>
<linearGradient id="paint0_linear_12_14547" x1="11.5" y1="121.5" x2="116.5" y2="121.5" gradientUnits="userSpaceOnUse">
<stop stop-color="#BFBFBF"/>
<stop offset="0.05" stop-color="#C1C1C1"/>
<stop offset="0.1" stop-color="#9C9C9C"/>
<stop offset="0.9" stop-color="#9C9C9C"/>
<stop offset="0.95" stop-color="#C1C1C1"/>
<stop offset="1" stop-color="#A7A7A7"/>
</linearGradient>
<radialGradient id="paint1_radial_12_14547" cx="0" cy="0" r="1" gradientUnits="userSpaceOnUse" gradientTransform="translate(65.0693 109.162) scale(96.6554 102.662)">
<stop stop-color="#2D2739"/>
<stop offset="1" stop-color="#191824"/>
</radialGradient>
</defs>
</svg>

<svg xmlns="http://www.w3.org/2000/svg" width="128" height="128" fill="none" viewBox="0 0 128 128">
    <path fill="url(#a)" d="M103.5 16.5h-79c-7.18 0-13 5.82-13 13v79c0 7.18 5.82 13 13 13h79c7.18 0 13-5.82 13-13v-79c0-7.18-5.82-13-13-13"/>
    <path fill="#ccc" d="M103.5 6.5h-79c-7.18 0-13 5.82-13 13v79c0 7.18 5.82 13 13 13h79c7.18 0 13-5.82 13-13v-79c0-7.18-5.82-13-13-13"/>
    <path fill="url(#b)" d="M102.162 8.838H25.838c-6.628 0-12 5.373-12 12v76.324c0 6.627 5.373 12 12 12h76.324c6.627 0 12-5.373 12-12V20.838c0-6.628-5.373-12-12-12"/>
    <path fill="#e5e5e5" stroke="#e5e5e5" stroke-width=".5" d="M93.31 24.75c3.062 0 4.596 3.703 2.43 5.868L61.1 65.258h9.025v-4.383h4.75v5.695a3.44 3.44 0 0 1-3.437 3.438H56.35l-6.805 6.805h32.267V50.25h4.75v26.813a4.5 4.5 0 0 1-4.5 4.5H44.796L37.858 88.5h53.767c1.036 0 1.875-.84 1.875-1.875v-47h4.75v47a6.625 6.625 0 0 1-6.625 6.625H34.69c-3.062 0-4.596-3.703-2.43-5.868l34.507-34.507h-8.892v4.25h-4.75v-5.562a3.44 3.44 0 0 1 3.438-3.438h14.954l6.937-6.937H46.188V67.75h-4.75V40.938a4.5 4.5 0 0 1 4.5-4.5h37.266l6.938-6.938H36.375c-1.035 0-1.875.84-1.875 1.875v47h-4.75v-47a6.625 6.625 0 0 1 6.625-6.625z"/>
    <defs>
        <radialGradient id="b" cx="0" cy="0" r="1" gradientTransform="matrix(96.6554 0 0 102.662 65.07 109.162)" gradientUnits="userSpaceOnUse">
            <stop stop-color="#2d2739"/>
            <stop offset="1" stop-color="#191824"/>
        </radialGradient>
        <linearGradient id="a" x1="11.5" x2="116.5" y1="121.5" y2="121.5" gradientUnits="userSpaceOnUse">
            <stop stop-color="#bfbfbf"/>
            <stop offset=".05" stop-color="#c1c1c1"/>
            <stop offset=".1" stop-color="#9c9c9c"/>
            <stop offset=".9" stop-color="#9c9c9c"/>
            <stop offset=".95" stop-color="#c1c1c1"/>
            <stop offset="1" stop-color="#a7a7a7"/>
        </linearGradient>
    </defs>
</svg>
